icons/tencent_wechat.svg

<?xml version="1.0" encoding="UTF-8" standalone="no"?>
<svg
   xmlns:dc="http://purl.org/dc/elements/1.1/"
   xmlns:cc="http://creativecommons.org/ns#"
   xmlns:rdf="http://www.w3.org/1999/02/22-rdf-syntax-ns#"
   xmlns:svg="http://www.w3.org/2000/svg"
   xmlns="http://www.w3.org/2000/svg"
   xmlns:sodipodi="http://sodipodi.sourceforge.net/DTD/sodipodi-0.dtd"
   xmlns:inkscape="http://www.inkscape.org/namespaces/inkscape"
   version="1.1"
   id="Capa_1"
   x="0px"
   y="0px"
   viewBox="0 0 512 512"
   style="enable-background:new 0 0 512 512;"
   xml:space="preserve"
   sodipodi:docname="tencent_wechat.svg"
   inkscape:version="1.0 (4035a4fb49, 2020-05-01)"><metadata
   id="metadata47"><rdf:RDF><cc:Work
       rdf:about=""><dc:format>image/svg+xml</dc:format><dc:type
         rdf:resource="http://purl.org/dc/dcmitype/StillImage" /></cc:Work></rdf:RDF></metadata><defs
   id="defs45" /><sodipodi:namedview
   inkscape:document-rotation="0"
   pagecolor="#ffffff"
   bordercolor="#666666"
   borderopacity="1"
   objecttolerance="10"
   gridtolerance="10"
   guidetolerance="10"
   inkscape:pageopacity="0"
   inkscape:pageshadow="2"
   inkscape:window-width="1920"
   inkscape:window-height="1017"
   id="namedview43"
   showgrid="false"
   inkscape:zoom="1.5976562"
   inkscape:cx="209.99511"
   inkscape:cy="249.11491"
   inkscape:window-x="1912"
   inkscape:window-y="-8"
   inkscape:window-maximized="1"
   inkscape:current-layer="Capa_1" />
<circle
   style="fill:#5a915a;stroke:#4c241d;stroke-width:9;stroke-miterlimit:4;stroke-dasharray:none;stroke-opacity:1"
   cx="256"
   cy="256"
   r="246.15385"
   id="circle2" />

<g
   transform="matrix(0.96153846,0,0,0.96153846,9.8461538,9.8461538)"
   id="g10"
   style="stroke:none;stroke-width:1;stroke-miterlimit:4;stroke-dasharray:none;stroke-opacity:1">
	<path
   style="fill:#ffffff;stroke:none;stroke-width:1;stroke-miterlimit:4;stroke-dasharray:none;stroke-opacity:1"
   d="m 243.338,227.294 c 20.522,-17.516 47.724,-27.162 76.592,-27.162 3.332,0 6.641,0.134 9.921,0.389 -11.022,-46.995 -59.635,-82.403 -117.942,-82.403 -66.434,0 -120.288,45.965 -120.288,102.664 0,29.613 14.696,56.292 38.195,75.029 l -9.791,44.062 43.14,-25.212 c 14.9,5.644 31.392,8.786 48.745,8.786 1.405,0 2.803,-0.029 4.197,-0.069 -3.416,-9.224 -5.196,-18.958 -5.196,-28.941 -0.001,-25.451 11.516,-49.295 32.427,-67.143 z m 10.836,-61.267 c 8.505,0 15.399,6.895 15.399,15.399 0,8.504 -6.895,15.399 -15.399,15.399 -8.505,0 -15.399,-6.895 -15.399,-15.399 0,-8.504 6.894,-15.399 15.399,-15.399 z m -87.264,30.8 c -8.505,0 -15.399,-6.895 -15.399,-15.399 0,-8.504 6.895,-15.399 15.399,-15.399 8.504,0 15.399,6.895 15.399,15.399 0,8.504 -6.894,15.399 -15.399,15.399 z"
   id="path6" />
	<path
   style="fill:#ffffff;stroke:none;stroke-width:1;stroke-miterlimit:4;stroke-dasharray:none;stroke-opacity:1"
   d="m 319.931,208.706 c -55.476,0 -100.447,38.382 -100.447,85.73 0,47.348 44.971,85.73 100.447,85.73 14.49,0 28.261,-2.623 40.704,-7.337 l 36.024,21.053 -8.176,-36.793 c 19.624,-15.647 31.895,-37.925 31.895,-62.653 0,-47.348 -44.972,-85.73 -100.447,-85.73 z m -35.293,40.007 c 7.102,0 12.859,5.757 12.859,12.859 0,7.102 -5.757,12.859 -12.859,12.859 -7.102,0 -12.859,-5.757 -12.859,-12.859 0,-7.102 5.758,-12.859 12.859,-12.859 z m 72.871,25.719 c -7.102,0 -12.859,-5.757 -12.859,-12.859 0,-7.102 5.757,-12.859 12.859,-12.859 7.102,0 12.859,5.757 12.859,12.859 0,7.102 -5.757,12.859 -12.859,12.859 z"
   id="path8" />
</g>
<g
   transform="matrix(0.96153846,0,0,0.96153846,9.8461538,9.8461538)"
   id="g12">
</g>
<g
   transform="matrix(0.96153846,0,0,0.96153846,9.8461538,9.8461538)"
   id="g14">
</g>
<g
   transform="matrix(0.96153846,0,0,0.96153846,9.8461538,9.8461538)"
   id="g16">
</g>
<g
   transform="matrix(0.96153846,0,0,0.96153846,9.8461538,9.8461538)"
   id="g18">
</g>
<g
   transform="matrix(0.96153846,0,0,0.96153846,9.8461538,9.8461538)"
   id="g20">
</g>
<g
   transform="matrix(0.96153846,0,0,0.96153846,9.8461538,9.8461538)"
   id="g22">
</g>
<g
   transform="matrix(0.96153846,0,0,0.96153846,9.8461538,9.8461538)"
   id="g24">
</g>
<g
   transform="matrix(0.96153846,0,0,0.96153846,9.8461538,9.8461538)"
   id="g26">
</g>
<g
   transform="matrix(0.96153846,0,0,0.96153846,9.8461538,9.8461538)"
   id="g28">
</g>
<g
   transform="matrix(0.96153846,0,0,0.96153846,9.8461538,9.8461538)"
   id="g30">
</g>
<g
   transform="matrix(0.96153846,0,0,0.96153846,9.8461538,9.8461538)"
   id="g32">
</g>
<g
   transform="matrix(0.96153846,0,0,0.96153846,9.8461538,9.8461538)"
   id="g34">
</g>
<g
   transform="matrix(0.96153846,0,0,0.96153846,9.8461538,9.8461538)"
   id="g36">
</g>
<g
   transform="matrix(0.96153846,0,0,0.96153846,9.8461538,9.8461538)"
   id="g38">
</g>
<g
   transform="matrix(0.96153846,0,0,0.96153846,9.8461538,9.8461538)"
   id="g40">
</g>
</svg>

<?xml version="1.0" encoding="UTF-8" standalone="no"?>
<svg
   xmlns:dc="http://purl.org/dc/elements/1.1/"
   xmlns:cc="http://creativecommons.org/ns#"
   xmlns:rdf="http://www.w3.org/1999/02/22-rdf-syntax-ns#"
   xmlns:svg="http://www.w3.org/2000/svg"
   xmlns="http://www.w3.org/2000/svg"
   xmlns:sodipodi="http://sodipodi.sourceforge.net/DTD/sodipodi-0.dtd"
   xmlns:inkscape="http://www.inkscape.org/namespaces/inkscape"
   inkscape:version="1.0 (4035a4fb49, 2020-05-01)"
   sodipodi:docname="tencent_wechat.svg"
   xml:space="preserve"
   style="enable-background:new 0 0 512 512;"
   viewBox="0 0 512 512"
   y="0px"
   x="0px"
   id="Capa_1"
   version="1.1"><metadata
   id="metadata47"><rdf:RDF><cc:Work
       rdf:about=""><dc:format>image/svg+xml</dc:format><dc:type
         rdf:resource="http://purl.org/dc/dcmitype/StillImage" /></cc:Work></rdf:RDF></metadata><defs
   id="defs45" /><sodipodi:namedview
   inkscape:current-layer="Capa_1"
   inkscape:window-maximized="1"
   inkscape:window-y="-11"
   inkscape:window-x="-11"
   inkscape:cy="249.11491"
   inkscape:cx="241.60391"
   inkscape:zoom="1.5976562"
   showgrid="false"
   id="namedview43"
   inkscape:window-height="986"
   inkscape:window-width="1920"
   inkscape:pageshadow="2"
   inkscape:pageopacity="0"
   guidetolerance="10"
   gridtolerance="10"
   objecttolerance="10"
   borderopacity="1"
   bordercolor="#666666"
   pagecolor="#ffffff" />
<circle
   id="circle2"
   r="256"
   cy="256"
   cx="256"
   style="fill:#5A915A;" />

<g
   style="stroke:none;stroke-opacity:1;stroke-width:1;stroke-miterlimit:4;stroke-dasharray:none"
   id="g10">
	<path
   id="path6"
   d="M243.338,227.294c20.522-17.516,47.724-27.162,76.592-27.162c3.332,0,6.641,0.134,9.921,0.389   c-11.022-46.995-59.635-82.403-117.942-82.403c-66.434,0-120.288,45.965-120.288,102.664c0,29.613,14.696,56.292,38.195,75.029   l-9.791,44.062l43.14-25.212c14.9,5.644,31.392,8.786,48.745,8.786c1.405,0,2.803-0.029,4.197-0.069   c-3.416-9.224-5.196-18.958-5.196-28.941C210.91,268.986,222.427,245.142,243.338,227.294z M254.174,166.027   c8.505,0,15.399,6.895,15.399,15.399s-6.895,15.399-15.399,15.399c-8.505,0-15.399-6.895-15.399-15.399   C238.775,172.922,245.669,166.027,254.174,166.027z M166.91,196.827c-8.505,0-15.399-6.895-15.399-15.399   s6.895-15.399,15.399-15.399s15.399,6.895,15.399,15.399S175.415,196.827,166.91,196.827z"
   style="fill:#FFFFFF;stroke:none;stroke-opacity:1;stroke-width:1;stroke-miterlimit:4;stroke-dasharray:none" />
	<path
   id="path8"
   d="M319.931,208.706c-55.476,0-100.447,38.382-100.447,85.73s44.971,85.73,100.447,85.73   c14.49,0,28.261-2.623,40.704-7.337l36.024,21.053l-8.176-36.793c19.624-15.647,31.895-37.925,31.895-62.653   C420.378,247.088,375.406,208.706,319.931,208.706z M284.638,248.713c7.102,0,12.859,5.757,12.859,12.859   c0,7.102-5.757,12.859-12.859,12.859s-12.859-5.757-12.859-12.859C271.779,254.47,277.537,248.713,284.638,248.713z    M357.509,274.432c-7.102,0-12.859-5.757-12.859-12.859c0-7.102,5.757-12.859,12.859-12.859s12.859,5.757,12.859,12.859   C370.368,268.675,364.611,274.432,357.509,274.432z"
   style="fill:#FFFFFF;stroke:none;stroke-opacity:1;stroke-width:1;stroke-miterlimit:4;stroke-dasharray:none" />
</g>
<g
   id="g12">
</g>
<g
   id="g14">
</g>
<g
   id="g16">
</g>
<g
   id="g18">
</g>
<g
   id="g20">
</g>
<g
   id="g22">
</g>
<g
   id="g24">
</g>
<g
   id="g26">
</g>
<g
   id="g28">
</g>
<g
   id="g30">
</g>
<g
   id="g32">
</g>
<g
   id="g34">
</g>
<g
   id="g36">
</g>
<g
   id="g38">
</g>
<g
   id="g40">
</g>
</svg>
